assets/img/auto-schedule-icon.svg

<svg height="50" viewBox="0 0 50 50" width="50" xmlns="http://www.w3.org/2000/svg"><g fill="none" fill-rule="evenodd" transform="translate(3.5 6)"><g transform="matrix(.70710678 .70710678 -.70710678 .70710678 27.606602 4.736544)"><path d="m2.25 0h5.5c.69035594 0 1.25.56710598 1.25 1.26666667v33.46666663c0 .6995607-.55964406 1.2666667-1.25 1.2666667h-5.5c-.69035594 0-1.25-.567106-1.25-1.2666667v-33.46666663c0-.69956069.55964406-1.26666667 1.25-1.26666667z" stroke="#e8b600" stroke-width="3"/><path d="m.86897118 22.5714286h7.78923697l.20813043 11.4198883c.025495 1.3988829-1.07293451 2.5538448-2.45341098 2.5796798-.01538595.0002879-.0307742.0004319-.04616278.0004319h-2.78838436c-1.36271744 0-2.47441103-1.1059035-2.49957376-2.4865551z" fill="#e8b600"/></g><g fill="#e8b600"><path d="m36.2733685 27.8270019-4.2733685 2.1729981 2.1729981-4.2733685c.0724154-.1424106.0724154-.3108524 0-.453263l-2.1729981-4.2733685 4.2733685 2.1729981c.1424106.0724154.3108524.0724154.453263 0l4.2733685-2.1729981-2.1729981 4.2733685c-.0724154.1424106-.0724154.3108524 0 .453263l2.1729981 4.2733685-4.2733685-2.1729981c-.1424106-.0724154-.3108524-.0724154-.453263 0z" transform="matrix(.70710678 .70710678 -.70710678 .70710678 28.721825 -18.34062)"/><path d="m25.7733685 35.0982462-1.7733685.9017538.9017538-1.7733685c.0724155-.1424106.0724155-.3108524 0-.453263l-.9017538-1.7733685 1.7733685.9017538c.1424106.0724155.3108524.0724155.453263 0l1.7733685-.9017538-.9017538 1.7733685c-.0724155.1424106-.0724155.3108524 0 .453263l.9017538 1.7733685-1.7733685-.9017538c-.1424106-.0724155-.3108524-.0724155-.453263 0z" transform="matrix(.70710678 .70710678 -.70710678 .70710678 31.656854 -8.426407)"/><path d="m8.78875965 11.3017266-5.78875965 2.6982734 2.91644114-5.25745616c.08368966-.15086699.08368966-.33422069 0-.48508768l-2.91644114-5.25745616 5.78875965 2.6982734c.13391044.06241872.28857026.06241872.4224807 0l5.78875965-2.6982734-2.9164411 5.25745616c-.0836897.15086699-.0836897.33422069 0 .48508768l2.9164411 5.25745616-5.78875965-2.6982734c-.13391044-.0624187-.28857026-.0624187-.4224807 0z" transform="matrix(.70710678 .70710678 -.70710678 .70710678 8.646447 -3.874369)"/></g></g></svg>

<?xml version="1.0" encoding="UTF-8"?>
<svg width="50px" height="50px" viewBox="0 0 50 50" version="1.1" xmlns="http://www.w3.org/2000/svg" xmlns:xlink="http://www.w3.org/1999/xlink">
    <!-- Generator: Sketch 50.2 (55047) - http://www.bohemiancoding.com/sketch -->
    <title>auto-schedule-icon</title>
    <desc>Created with Sketch.</desc>
    <defs></defs>
    <g id="auto-schedule-icon" stroke="none" stroke-width="1" fill="none" fill-rule="evenodd">
        <g transform="translate(0.000000, 6.000000)">
            <g id="Group-17" transform="translate(17.707107, 21.000000) rotate(-315.000000) translate(-17.707107, -21.000000) translate(13.207107, 2.500000)">
                <path d="M2.25,-1.8189894e-11 L7.75,-1.8189894e-11 C8.44035594,-1.81906439e-11 9,0.567105984 9,1.26666667 L9,34.7333333 C9,35.432894 8.44035594,36 7.75,36 L2.25,36 C1.55964406,36 1,35.432894 1,34.7333333 L1,1.26666667 C1,0.567105984 1.55964406,-1.81897655e-11 2.25,-1.8189894e-11 Z" id="Rectangle-5" stroke="#E8B600" stroke-width="3"></path>
                <path d="M0.86897118,22.5714286 L8.65820815,22.5714286 L8.86633858,33.9913169 C8.89183358,35.3901998 7.79340407,36.5451617 6.4129276,36.5709967 C6.39754165,36.5712846 6.3821534,36.5714286 6.36676482,36.5714286 L3.57838046,36.5714286 C2.21566302,36.5714286 1.10396943,35.4655251 1.0788067,34.0848735 L0.86897118,22.5714286 Z" id="Rectangle-6" fill="#E8B600"></path>
            </g>
            <path d="M36.2733685,27.8270019 L32,30 L34.1729981,25.7266315 C34.2454135,25.5842209 34.2454135,25.4157791 34.1729981,25.2733685 L32,21 L36.2733685,23.1729981 C36.4157791,23.2454135 36.5842209,23.2454135 36.7266315,23.1729981 L41,21 L38.8270019,25.2733685 C38.7545865,25.4157791 38.7545865,25.5842209 38.8270019,25.7266315 L41,30 L36.7266315,27.8270019 C36.5842209,27.7545865 36.4157791,27.7545865 36.2733685,27.8270019 Z" id="Star" fill="#E8B600" transform="translate(36.500000, 25.500000) rotate(45.000000) translate(-36.500000, -25.500000) "></path>
            <path d="M25.7733685,35.0982462 L24,36 L24.9017538,34.2266315 C24.9741693,34.0842209 24.9741693,33.9157791 24.9017538,33.7733685 L24,32 L25.7733685,32.9017538 C25.9157791,32.9741693 26.0842209,32.9741693 26.2266315,32.9017538 L28,32 L27.0982462,33.7733685 C27.0258307,33.9157791 27.0258307,34.0842209 27.0982462,34.2266315 L28,36 L26.2266315,35.0982462 C26.0842209,35.0258307 25.9157791,35.0258307 25.7733685,35.0982462 Z" id="Star" fill="#E8B600" transform="translate(26.000000, 34.000000) rotate(45.000000) translate(-26.000000, -34.000000) "></path>
            <path d="M8.78875965,11.3017266 L3,14 L5.91644114,8.74254384 C6.0001308,8.59167685 6.0001308,8.40832315 5.91644114,8.25745616 L3,3 L8.78875965,5.6982734 C8.92267009,5.76069212 9.07732991,5.76069212 9.21124035,5.6982734 L15,3 L12.0835589,8.25745616 C11.9998692,8.40832315 11.9998692,8.59167685 12.0835589,8.74254384 L15,14 L9.21124035,11.3017266 C9.07732991,11.2393079 8.92267009,11.2393079 8.78875965,11.3017266 Z" id="Star" fill="#E8B600" transform="translate(9.000000, 8.500000) rotate(45.000000) translate(-9.000000, -8.500000) "></path>
        </g>
    </g>
</svg>
